static/assets/images/networks/scroll.svg

<svg width="256" height="256" viewBox="0 0 256 256" fill="none" xmlns="http://www.w3.org/2000/svg">
<path d="M128 256C198.692 256 256 198.692 256 128C256 57.3075 198.692 0 128 0C57.3075 0 0 57.3075 0 128C0 198.692 57.3075 256 128 256Z" fill="#F0D6AF"/>
<path d="M191.683 159.003V60.8267C191.552 52.6119 185.154 46 177.124 46H76.9756C55.366 46.3339 38 64.4332 38 86.6065C38 94.0867 39.9586 100.498 42.9617 106.108C45.5079 110.783 49.4903 115.191 53.4074 118.464C54.5173 119.399 53.9951 118.998 57.3899 121.136C62.0905 124.074 67.4439 125.543 67.4439 125.543L67.3786 184.249C67.5092 187.054 67.7703 189.726 68.4885 192.197C70.7082 200.479 76.3227 206.823 83.9613 209.895C87.1602 211.164 90.751 212.032 94.6029 212.1L174.578 212.366C190.507 212.366 203.434 199.143 203.434 182.78C203.499 173.096 198.799 164.413 191.683 159.003Z" fill="#FFEEDA"/>
<path d="M193.641 183.515C193.314 194 184.892 202.415 174.577 202.415L119.542 202.215C123.915 197.006 126.592 190.26 126.592 182.913C126.592 171.359 119.868 163.412 119.868 163.412H174.642C185.154 163.412 193.706 172.16 193.706 182.913L193.641 183.515Z" fill="#EBC28E"/>
<path d="M58.6303 110.183C52.2976 104.038 47.8582 96.0906 47.8582 86.6737V85.6719C48.3805 69.5762 61.307 56.6195 77.0409 56.152H177.189C179.801 56.2856 181.89 58.1557 181.89 60.8939V147.583C184.175 147.984 185.284 148.318 187.505 149.12C189.268 149.788 191.683 151.19 191.683 151.19V60.8939C191.552 52.6791 185.154 46.0672 177.124 46.0672H76.9756C55.366 46.4011 38 64.5004 38 86.6737C38 99.5636 43.7452 110.583 53.1463 118.33C53.7992 118.865 54.3867 119.533 56.0842 119.533C59.0221 119.533 61.1112 117.128 60.9806 114.524C60.9153 112.32 60.0013 111.518 58.6303 110.183Z" fill="#101010"/>
<path d="M174.578 153.26H96.0393C90.7512 153.327 86.5076 157.668 86.5076 163.078V174.632C86.6382 179.975 91.0777 184.516 96.3658 184.516H102.176V174.632H96.3658V163.345C96.3658 163.345 97.8021 163.345 99.5648 163.345C109.488 163.345 116.801 172.762 116.801 182.847C116.801 191.796 108.835 203.216 95.517 202.282C83.7003 201.48 77.3023 190.727 77.3023 182.847V84.9369C77.3023 80.529 73.7769 76.9225 69.4681 76.9225H61.6337V86.9406H67.4442V182.913C67.1178 202.416 81.0236 212.233 95.517 212.233L174.644 212.5C190.573 212.5 203.5 199.277 203.5 182.913C203.5 166.551 190.508 153.26 174.578 153.26ZM193.641 183.515C193.314 194 184.892 202.415 174.577 202.415L119.542 202.215C123.915 197.006 126.592 190.26 126.592 182.913C126.592 171.359 119.868 163.412 119.868 163.412H174.642C185.154 163.412 193.706 172.16 193.706 182.913L193.641 183.515Z" fill="#101010"/>
<path d="M153.424 88.7451H94.2098V78.7271H153.424C156.101 78.7271 158.321 80.931 158.321 83.7361C158.321 86.4743 156.166 88.7451 153.424 88.7451Z" fill="#101010"/>
<path d="M153.424 135.895H94.2098V125.876H153.424C156.101 125.876 158.321 128.081 158.321 130.886C158.321 133.624 156.166 135.895 153.424 135.895Z" fill="#101010"/>
<path d="M163.87 112.32H94.2098V102.302H163.804C166.482 102.302 168.701 104.506 168.701 107.311C168.766 110.049 166.547 112.32 163.87 112.32Z" fill="#101010"/>
</svg>

<svg xmlns="http://www.w3.org/2000/svg" fill="none" viewBox="0 0 256 256"><path fill="#F0D6AF" d="M128 256c70.692 0 128-57.308 128-128S198.692 0 128 0 0 57.308 0 128s57.308 128 128 128"/><path fill="#FFEEDA" d="M191.683 159.003V60.827C191.552 52.612 185.154 46 177.124 46H76.976C55.366 46.334 38 64.433 38 86.607c0 7.48 1.959 13.891 4.962 19.501 2.546 4.675 6.528 9.083 10.445 12.356 1.11.935.588.534 3.983 2.672 4.7 2.938 10.054 4.407 10.054 4.407l-.065 58.706c.13 2.805.391 5.477 1.11 7.948 2.22 8.282 7.834 14.626 15.472 17.698 3.2 1.269 6.79 2.137 10.642 2.205l79.975.266c15.929 0 28.856-13.223 28.856-29.586.065-9.684-4.635-18.367-11.751-23.777"/><path fill="#EBC28E" d="M193.641 183.515c-.327 10.485-8.749 18.9-19.064 18.9l-55.035-.2c4.373-5.209 7.05-11.955 7.05-19.302 0-11.554-6.724-19.501-6.724-19.501h54.774c10.512 0 19.064 8.748 19.064 19.501z"/><path fill="#101010" d="M58.63 110.183c-6.332-6.145-10.772-14.092-10.772-23.51v-1.001c.523-16.096 13.449-29.052 29.183-29.52h100.148c2.612.134 4.701 2.004 4.701 4.742v86.689c2.285.401 3.394.735 5.615 1.537 1.763.668 4.178 2.07 4.178 2.07V60.894c-.131-8.215-6.529-14.827-14.559-14.827H76.976C55.366 46.401 38 64.5 38 86.674c0 12.89 5.745 23.909 15.146 31.656.653.535 1.24 1.203 2.938 1.203 2.938 0 5.027-2.405 4.897-5.009-.066-2.204-.98-3.006-2.35-4.341"/><path fill="#101010" d="M174.578 153.26H96.039c-5.288.067-9.531 4.408-9.531 9.818v11.554c.13 5.343 4.57 9.884 9.858 9.884h5.81v-9.884h-5.81v-11.287h3.199c9.923 0 17.236 9.417 17.236 19.502 0 8.949-7.966 20.369-21.284 19.435-11.817-.802-18.215-11.555-18.215-19.435v-97.91c0-4.408-3.525-8.014-7.834-8.014h-7.834V86.94h5.81v95.972c-.326 19.503 13.58 29.32 28.073 29.32l79.127.267c15.929 0 28.856-13.223 28.856-29.587 0-16.362-12.992-29.653-28.922-29.653m19.063 30.255c-.327 10.485-8.749 18.9-19.064 18.9l-55.035-.2c4.373-5.209 7.05-11.955 7.05-19.302 0-11.554-6.724-19.501-6.724-19.501h54.774c10.512 0 19.064 8.748 19.064 19.501zm-40.217-94.769H94.21V78.727h59.214c2.677 0 4.897 2.204 4.897 5.01 0 2.737-2.155 5.008-4.897 5.008"/><path fill="#101010" d="M153.424 135.895H94.21v-10.019h59.214c2.677 0 4.897 2.205 4.897 5.01 0 2.738-2.155 5.009-4.897 5.009m10.446-23.575H94.21v-10.018h69.594c2.678 0 4.897 2.204 4.897 5.009.065 2.738-2.154 5.009-4.831 5.009"/></svg>
